!!!OTL@@FUR: Lait a rosis
!!!OTL@IT: Andate a cogliere rose
!!!OTL@EN: Go picking flowers
**kern
*clefG2
*k[b-]
*F:
*M3/4
*MM60
*>[A,A]
*>A
4cc
4cc
=1
8dd
8cc
4b-
4a
=2
8a
8cc
4b-
4a
=3
4a
[2g
=4
8g]
8r
4cc
4cc
=5
2ee
4dd
=6
4cc
4dd
4cc
=7
4b-
[2a
=8
8a]
8r
4cc
4cc
=9
8dd
8cc
4b-
4a
=10
8a
8cc
4b-
4a
=11
4a
[2g
=12
8g]
8r
4cc
4cc
=13
2ee
4dd
=13
4cc
4dd
4b-
=14
[2.a
=15
4a]
==:|!
*-
!!!ARE: Friuli
!!!ENC: Kelly Leistikow
!!!END: 2002/03/07
!!!ref: @{OTL@@FUR}/@{OTL@EN}
